src/assets/planets/Saturne.svg

<svg  viewBox="0 0 585 369" fill="none" xmlns="http://www.w3.org/2000/svg">
<g clip-path="url(#clip0_47_175)">
<path d="M475.63 184.22C475.631 208.414 470.867 232.371 461.609 254.723C452.351 277.076 438.781 297.386 421.673 314.493C404.566 331.601 384.256 345.171 361.903 354.429C339.551 363.687 315.594 368.451 291.4 368.45C189.67 368.45 107.19 285.97 107.19 184.22C107.19 82.47 189.67 2.7144e-07 291.4 2.7144e-07C315.593 -0.00131299 339.549 4.76271 361.901 14.02C384.253 23.2774 404.562 36.8467 421.67 53.9533C438.777 71.0598 452.348 91.3685 461.606 113.72C470.865 136.071 475.63 160.027 475.63 184.22Z" fill="url(#paint0_linear_47_175)"/>
<path opacity="0.4" d="M342.26 7.14001C338 13.23 333.79 19.38 329.59 25.51C323.27 34.73 316.78 43.07 307.84 49.96C298.9 56.85 288.84 62.5 278.74 67.77C267.86 73.44 257.07 79.27 246.02 84.58C206.93 103.4 163.94 117.88 120.35 115.87C118.028 121.648 115.999 127.538 114.27 133.52C138.76 141.07 166.27 138.21 190.87 133.13C235.87 123.81 279.12 106.52 316.94 80.23C334.792 67.8424 351.757 54.2226 367.71 39.47C372.71 34.86 378.06 29.83 383.07 24.4C370.216 17.0159 356.512 11.2202 342.26 7.14001Z" fill="#FDDAB2"/>
<path opacity="0.4" d="M179.12 93.28C191.54 90.02 203.12 84.47 215.12 79.95C225.32 76.12 235.97 73.75 246.26 70.16C280.26 58.32 316.4 38.08 332.48 4.64001C293.307 -4.33045 252.275 -0.239647 215.644 16.2883C179.013 32.8162 148.795 60.8737 129.6 96.18C146.16 96.27 163.12 97.48 179.12 93.28Z" fill="#FDDAB2"/>
<path opacity="0.4" d="M160 169.08C179.16 169.08 197.39 164.86 215.5 158.81C227.68 154.76 239.64 150.17 251.65 145.67C263.34 141.29 275.22 137.42 286.65 132.47C307.314 123.54 326.89 112.28 345 98.91C367.95 81.97 388.52 62.31 408.33 41.91C404.24 38.54 400.02 35.35 395.63 32.35C393.3 34.35 390.94 36.35 388.63 38.35C374.63 49.96 360.5 61.46 346.24 72.69C320.85 92.69 292.89 108.34 263.15 120.81C234 132.94 203.92 143.85 173 150.35C158.19 153.47 142.69 155.96 127.52 154.7C121.589 154.328 115.746 153.081 110.18 151C109.11 156.92 108.34 162.95 107.84 169C125.16 166.93 142.61 169.06 160 169.08Z" fill="#FDDAB2"/>
<path opacity="0.4" d="M122.88 242.35C134.571 241.982 146.222 240.806 157.75 238.83C168.28 237.16 178.75 235.17 189.24 233.11C200.983 230.722 212.919 229.413 224.9 229.2C237.98 229.01 250.99 228.36 263.39 223.77C275.49 219.28 286.69 212.7 297.69 205.98C318.98 192.98 341.2 181.53 362.24 167.98C383.28 154.43 404.76 140.18 419.3 119.58C428.19 106.99 435.25 93.24 443.43 80.22C439.99 75.22 436.36 70.39 432.43 65.75C432.22 66.4 431.99 67.04 431.79 67.67C428.55 77.9 425.57 89 419.34 97.84C406.54 116.11 386.66 128.32 367.88 139.62C347.56 151.86 327.53 164.68 306.88 176.42C285.76 188.42 263.33 199.63 239.29 204.21C212.06 209.41 184.1 211.35 156.51 213.58C143.65 214.58 131.27 216.79 118.59 218.9C115.95 219.35 113.3 219.75 110.66 220.08C112.157 227.631 114.131 235.079 116.57 242.38C118.83 242.43 121 242.38 122.88 242.35Z" fill="#FDDAB2"/>
<path opacity="0.4" d="M201.92 308.67C215.08 309.4 228.32 310.46 241.49 309.09C252.913 307.846 264.173 305.395 275.08 301.78C286.16 298.16 296.94 293.78 307.75 289.49C318.56 285.2 329.7 281.35 340.54 276.96C360.554 268.941 379.873 259.285 398.3 248.09C427.67 230.09 455.9 207.56 475.54 178.96C475.332 172.057 474.751 165.17 473.8 158.33C468.353 168.244 461.328 177.205 453 184.86C426.77 208.67 395.24 225.26 365.05 243.38C344.49 255.7 324.05 268.66 302 278.16C278.37 288.34 253.62 292.82 228.27 296.47C203.65 300.03 177.27 302.56 152.87 296.47C149.64 295.67 146.47 294.72 143.3 293.75C147.016 298.756 150.981 303.572 155.18 308.18C170.67 307.15 186.31 307.81 201.92 308.67Z" fill="#FDDAB2"/>
<path opacity="0.4" d="M449.17 261.92C420.82 299.77 376.11 319.67 332.65 335.05C320.29 339.44 307.93 343.22 294.88 344.92C281.408 346.597 267.807 346.993 254.26 346.1C233.26 344.86 212.42 341.63 191.55 339.04C215.884 354.733 243.575 364.47 272.376 367.462C301.177 370.454 330.277 366.616 357.318 356.259C384.358 345.903 408.577 329.319 428.01 307.853C447.444 286.387 461.545 260.644 469.17 232.71C462.61 242.48 456.24 252.49 449.17 261.92Z" fill="#FDDAB2"/>
<g style="mix-blend-mode:multiply" opacity="0.6">
<path d="M291.4 -4.46243e-06C189.67 -4.46243e-06 107.19 82.48 107.19 184.22C107.19 285.96 189.67 368.45 291.4 368.45C315.707 368.629 339.809 363.996 362.318 354.818C384.826 345.64 405.296 332.099 422.547 314.974C439.798 297.85 453.49 277.48 462.833 255.04C472.177 232.6 476.987 208.533 476.987 184.225C476.987 159.917 472.177 135.85 462.833 113.41C453.49 90.9697 439.798 70.6004 422.547 53.4757C405.296 36.3511 384.826 22.8096 362.318 13.6317C339.809 4.4538 315.707 -0.17909 291.4 -4.46243e-06ZM277.65 318.61C247.498 318.612 218.023 309.673 192.952 292.923C167.88 276.173 148.339 252.365 136.798 224.509C125.258 196.653 122.237 166.001 128.117 136.428C133.998 106.855 148.515 79.6906 169.835 58.3686C191.154 37.0467 218.317 22.5255 247.889 16.6412C277.461 10.757 308.114 13.774 335.971 25.3107C363.828 36.8475 387.639 56.3858 404.392 81.455C421.145 106.524 430.088 135.998 430.09 166.15C430.093 186.17 426.152 205.995 418.492 224.492C410.832 242.99 399.604 259.797 385.448 273.954C371.293 288.112 354.487 299.342 335.991 307.004C317.495 314.666 297.67 318.61 277.65 318.61Z" fill="#E38481"/>
</g>
<g style="mix-blend-mode:color-dodge" opacity="0.4">
<path d="M150.36 281.6C125.45 242.25 116.89 207.86 115.22 181.46C115.22 181.37 115.22 181.28 115.22 181.2C114.181 172.843 113.773 164.419 114 156C109.19 183.54 109 227 136.69 274.91C183.55 355.81 270.9 368.54 314.87 361.02C314.87 361 208.21 373 150.36 281.6Z" fill="#FCD7B8"/>
</g>
<path d="M583.31 66.31C572.12 36.31 505.76 31.23 415.84 48.39C419.413 51.67 422.857 55.0833 426.17 58.63C485.58 49.21 527.22 53.08 534.34 72.15C540.97 89.91 516.34 117.3 471.8 146.66C431.73 173.05 375.48 201 311.19 225C242.77 250.56 178.26 266.72 129.5 272.17C81.5 277.53 48.72 272.49 42.5 255.77C35.75 237.71 61.27 209.71 107.26 179.77C107.39 174.77 107.7 169.85 108.2 164.98C34 209.43 -9.14998 254.52 1.64002 283.43C12.11 311.43 70.77 317.74 151.81 304.43C202.33 296.13 261.53 280.23 323.21 257.2C381.21 235.57 433.36 210.62 475.62 185.42C550.49 140.78 594.15 95.37 583.31 66.31Z" fill="url(#paint1_linear_47_175)"/>
<path style="mix-blend-mode:multiply" d="M55.55 203.31C44.55 216.31 21.93 242.76 33.92 260.84C44.67 277 70.57 275.13 87.4 274.61C90.32 274.52 93.24 274.4 96.14 274.22C66.59 274.22 47.14 268.22 42.48 255.78C35.73 237.72 61.25 209.72 107.24 179.78C107.37 174.78 107.68 169.86 108.18 164.99C92.36 174.46 77.97 183.99 65.18 193.34C61.7769 196.471 58.5614 199.8 55.55 203.31Z" fill="url(#paint2_linear_47_175)"/>
<path style="mix-blend-mode:multiply" d="M426.17 58.63C485.58 49.21 527.22 53.08 534.34 72.15C539.96 87.15 523.18 109.15 490.82 133.35C498.26 129.53 505.55 125.35 512.75 121.1C522.05 115.62 533.13 109.33 539 99.93C544.74 90.78 550.8 77.82 544.63 67.37C535.63 52.15 516.07 47.75 499.95 44.66C489.314 42.7674 478.586 41.4323 467.81 40.66C451.65 42.28 434.24 44.84 415.81 48.36C419.403 51.66 422.857 55.0833 426.17 58.63Z" fill="url(#paint3_linear_47_175)"/>
<g style="mix-blend-mode:color-dodge">
<path d="M82.94 189.53C82.94 189.53 -2.99997 236.39 10.05 275.43C23.1 314.47 125.46 310.15 276.45 265.89C276.45 265.89 107.53 309.89 49.68 289.61C-8.16996 269.33 29.43 226.56 82.94 189.53Z" fill="#FAD1C3"/>
</g>
<g style="mix-blend-mode:color-dodge">
<path d="M555.3 60.53C527.16 39.09 480.08 47.22 480.08 47.22C480.08 47.22 565.13 48.38 548.34 84.83C534.41 115.11 496.1 144.32 463.96 164.06C466.42 163.01 468.85 161.92 471.24 160.73C514.83 134.77 587.26 84.89 555.3 60.53Z" fill="#FAD1C3"/>
</g>
</g>
<defs>
<linearGradient id="paint0_linear_47_175" x1="215.31" y1="5.75" x2="361.09" y2="347.65" gradientUnits="userSpaceOnUse">
<stop offset="0.05" stop-color="#CF9D8B"/>
<stop offset="0.2" stop-color="#EFB172"/>
<stop offset="0.46" stop-color="#CA9180"/>
<stop offset="0.5" stop-color="#CD9886"/>
<stop offset="0.55" stop-color="#D7AB97"/>
<stop offset="0.61" stop-color="#E7CBB4"/>
<stop offset="0.62" stop-color="#EAD2BA"/>
<stop offset="0.65" stop-color="#D9B9A1"/>
<stop offset="0.71" stop-color="#BA8B75"/>
<stop offset="0.77" stop-color="#A16550"/>
<stop offset="0.83" stop-color="#8D4833"/>
<stop offset="0.89" stop-color="#7F331E"/>
<stop offset="0.95" stop-color="#772612"/>
<stop offset="1" stop-color="#74220E"/>
</linearGradient>
<linearGradient id="paint1_linear_47_175" x1="345.28" y1="345" x2="282.8" y2="143.69" gradientUnits="userSpaceOnUse">
<stop stop-color="#C5937C"/>
<stop offset="0.02" stop-color="#C79882"/>
<stop offset="0.29" stop-color="#E4E0DF"/>
<stop offset="1" stop-color="#8CA89C"/>
</linearGradient>
<linearGradient id="paint2_linear_47_175" x1="77.15" y1="230.37" x2="42.4401" y2="135.79" gradientUnits="userSpaceOnUse">
<stop stop-color="#E4E0DF"/>
<stop offset="1" stop-color="#8CA89C"/>
</linearGradient>
<linearGradient id="paint3_linear_47_175" x1="488.32" y1="79.49" x2="453.61" y2="-15.1" gradientUnits="userSpaceOnUse">
<stop stop-color="#E4E0DF"/>
<stop offset="1" stop-color="#8CA89C"/>
</linearGradient>
<clipPath id="clip0_47_175">
<rect width="584.95" height="368.45" fill="white"/>
</clipPath>
</defs>
</svg>

<svg xmlns="http://www.w3.org/2000/svg" xmlns:xlink="http://www.w3.org/1999/xlink" viewBox="0 0 584.95 368.45"><defs><style>.cls-1{isolation:isolate;}.cls-2{fill:url(#linear-gradient);}.cls-3{fill:#fddab2;}.cls-3,.cls-5{opacity:0.4;}.cls-4{fill:#e38481;opacity:0.6;}.cls-4,.cls-7,.cls-8{mix-blend-mode:multiply;}.cls-5{fill:#fcd7b8;}.cls-5,.cls-9{mix-blend-mode:color-dodge;}.cls-6{fill:url(#linear-gradient-2);}.cls-7{fill:url(#linear-gradient-3);}.cls-8{fill:url(#linear-gradient-4);}.cls-9{fill:#fad1c3;}</style><linearGradient id="linear-gradient" x1="215.31" y1="5.75" x2="361.09" y2="347.65" gradientUnits="userSpaceOnUse"><stop offset="0.05" stop-color="#cf9d8b"/><stop offset="0.2" stop-color="#efb172"/><stop offset="0.46" stop-color="#ca9180"/><stop offset="0.5" stop-color="#cd9886"/><stop offset="0.55" stop-color="#d7ab97"/><stop offset="0.61" stop-color="#e7cbb4"/><stop offset="0.62" stop-color="#ead2ba"/><stop offset="0.65" stop-color="#d9b9a1"/><stop offset="0.71" stop-color="#ba8b75"/><stop offset="0.77" stop-color="#a16550"/><stop offset="0.83" stop-color="#8d4833"/><stop offset="0.89" stop-color="#7f331e"/><stop offset="0.95" stop-color="#772612"/><stop offset="1" stop-color="#74220e"/></linearGradient><linearGradient id="linear-gradient-2" x1="345.28" y1="345" x2="282.8" y2="143.69" gradientUnits="userSpaceOnUse"><stop offset="0" stop-color="#c5937c"/><stop offset="0.02" stop-color="#c79882"/><stop offset="0.29" stop-color="#e4e0df"/><stop offset="1" stop-color="#8ca89c"/></linearGradient><linearGradient id="linear-gradient-3" x1="77.15" y1="230.37" x2="42.44" y2="135.79" gradientUnits="userSpaceOnUse"><stop offset="0" stop-color="#e4e0df"/><stop offset="1" stop-color="#8ca89c"/></linearGradient><linearGradient id="linear-gradient-4" x1="488.32" y1="79.49" x2="453.61" y2="-15.1" xlink:href="#linear-gradient-3"/></defs><g class="cls-1"><g id="Calque_2" data-name="Calque 2"><g id="Calque_1-2" data-name="Calque 1"><path class="cls-2" d="M475.63,184.22A184.22,184.22,0,0,1,291.4,368.45c-101.73,0-184.21-82.48-184.21-184.23S189.67,0,291.4,0A184.22,184.22,0,0,1,475.63,184.22Z"/><path class="cls-3" d="M342.26,7.14c-4.26,6.09-8.47,12.24-12.67,18.37-6.32,9.22-12.81,17.56-21.75,24.45s-19,12.54-29.1,17.81c-10.88,5.67-21.67,11.5-32.72,16.81-39.09,18.82-82.08,33.3-125.67,31.29a185.43,185.43,0,0,0-6.08,17.65c24.49,7.55,52,4.69,76.6-.39,45-9.32,88.25-26.61,126.07-52.9a466.46,466.46,0,0,0,50.77-40.76c5-4.61,10.35-9.64,15.36-15.07A183.11,183.11,0,0,0,342.26,7.14Z"/><path class="cls-3" d="M179.12,93.28c12.42-3.26,24-8.81,36-13.33,10.2-3.83,20.85-6.2,31.14-9.79,34-11.84,70.14-32.08,86.22-65.52A184.14,184.14,0,0,0,129.6,96.18C146.16,96.27,163.12,97.48,179.12,93.28Z"/><path class="cls-3" d="M160,169.08c19.16,0,37.39-4.22,55.5-10.27,12.18-4.05,24.14-8.64,36.15-13.14,11.69-4.38,23.57-8.25,35-13.2A295.83,295.83,0,0,0,345,98.91c22.95-16.94,43.52-36.6,63.33-57-4.09-3.37-8.31-6.56-12.7-9.56-2.33,2-4.69,4-7,6-14,11.61-28.13,23.11-42.39,34.34-25.39,20-53.35,35.65-83.09,48.12C234,132.94,203.92,143.85,173,150.35c-14.81,3.12-30.31,5.61-45.48,4.35A60.29,60.29,0,0,1,110.18,151c-1.07,5.92-1.84,11.95-2.34,18C125.16,166.93,142.61,169.06,160,169.08Z"/><path class="cls-3" d="M122.88,242.35a253.52,253.52,0,0,0,34.87-3.52c10.53-1.67,21-3.66,31.49-5.72a196.5,196.5,0,0,1,35.66-3.91c13.08-.19,26.09-.84,38.49-5.43,12.1-4.49,23.3-11.07,34.3-17.79,21.29-13,43.51-24.45,64.55-38s42.52-27.8,57.06-48.4c8.89-12.59,15.95-26.34,24.13-39.36-3.44-5-7.07-9.83-11-14.47-.21.65-.44,1.29-.64,1.92C428.55,77.9,425.57,89,419.34,97.84c-12.8,18.27-32.68,30.48-51.46,41.78-20.32,12.24-40.35,25.06-61,36.8-21.12,12-43.55,23.21-67.59,27.79-27.23,5.2-55.19,7.14-82.78,9.37-12.86,1-25.24,3.21-37.92,5.32-2.64.45-5.29.85-7.93,1.18a182.24,182.24,0,0,0,5.91,22.3C118.83,242.43,121,242.38,122.88,242.35Z"/><path class="cls-3" d="M201.92,308.67c13.16.73,26.4,1.79,39.57.42a162.8,162.8,0,0,0,33.59-7.31c11.08-3.62,21.86-8,32.67-12.29s21.95-8.14,32.79-12.53a392.09,392.09,0,0,0,57.76-28.87c29.37-18,57.6-40.53,77.24-69.13a191.9,191.9,0,0,0-1.74-20.63A104.16,104.16,0,0,1,453,184.86c-26.23,23.81-57.76,40.4-87.95,58.52-20.56,12.32-41,25.28-63.05,34.78-23.63,10.18-48.38,14.66-73.73,18.31-24.62,3.56-51,6.09-75.4,0-3.23-.8-6.4-1.75-9.57-2.72a186.5,186.5,0,0,0,11.88,14.43C170.67,307.15,186.31,307.81,201.92,308.67Z"/><path class="cls-3" d="M449.17,261.92c-28.35,37.85-73.06,57.75-116.52,73.13-12.36,4.39-24.72,8.17-37.77,9.87a214.59,214.59,0,0,1-40.62,1.18c-21-1.24-41.84-4.47-62.71-7.06A184.26,184.26,0,0,0,469.17,232.71C462.61,242.48,456.24,252.49,449.17,261.92Z"/><path class="cls-4" d="M291.4,0C189.67,0,107.19,82.48,107.19,184.22S189.67,368.45,291.4,368.45A184.23,184.23,0,1,0,291.4,0ZM277.65,318.61A152.45,152.45,0,1,1,430.09,166.15,152.44,152.44,0,0,1,277.65,318.61Z"/><path class="cls-5" d="M150.36,281.6c-24.91-39.35-33.47-73.74-35.14-100.14,0-.09,0-.18,0-.26A167.7,167.7,0,0,1,114,156c-4.81,27.54-5,71,22.69,118.91,46.86,80.9,134.21,93.63,178.18,86.11C314.87,361,208.21,373,150.36,281.6Z"/><path class="cls-6" d="M583.31,66.31c-11.19-30-77.55-35.08-167.47-17.92q5.36,4.92,10.33,10.24c59.41-9.42,101.05-5.55,108.17,13.52,6.63,17.76-18,45.15-62.54,74.51C431.73,173.05,375.48,201,311.19,225c-68.42,25.56-132.93,41.72-181.69,47.17-48,5.36-80.78.32-87-16.4-6.75-18.06,18.77-46.06,64.76-76,.13-5,.44-9.92.94-14.79C34,209.43-9.15,254.52,1.64,283.43c10.47,28,69.13,34.31,150.17,21,50.52-8.3,109.72-24.2,171.4-47.23,58-21.63,110.15-46.58,152.41-71.78C550.49,140.78,594.15,95.37,583.31,66.31Z"/><path class="cls-7" d="M55.55,203.31c-11,13-33.62,39.45-21.63,57.53C44.67,277,70.57,275.13,87.4,274.61c2.92-.09,5.84-.21,8.74-.39-29.55,0-49-6-53.66-18.44-6.75-18.06,18.77-46.06,64.76-76,.13-5,.44-9.92.94-14.79-15.82,9.47-30.21,19-43,28.35A117.68,117.68,0,0,0,55.55,203.31Z"/><path class="cls-8" d="M426.17,58.63c59.41-9.42,101.05-5.55,108.17,13.52,5.62,15-11.16,37-43.52,61.2,7.44-3.82,14.73-8,21.93-12.25,9.3-5.48,20.38-11.77,26.25-21.17,5.74-9.15,11.8-22.11,5.63-32.56-9-15.22-28.56-19.62-44.68-22.71a309.93,309.93,0,0,0-32.14-4c-16.16,1.62-33.57,4.18-52,7.7Q421.2,53.31,426.17,58.63Z"/><path class="cls-9" d="M82.94,189.53S-3,236.39,10.05,275.43s115.41,34.72,266.4-9.54c0,0-168.92,44-226.77,23.72S29.43,226.56,82.94,189.53Z"/><path class="cls-9" d="M555.3,60.53c-28.14-21.44-75.22-13.31-75.22-13.31s85.05,1.16,68.26,37.61c-13.93,30.28-52.24,59.49-84.38,79.23,2.46-1.05,4.89-2.14,7.28-3.33C514.83,134.77,587.26,84.89,555.3,60.53Z"/></g></g></g></svg>
